$VEL.CP=0.02
LIN {X 159.250,Y 0.025,Z 105.000,A 180.000,B 0.000,C 180.000} C_DIS
LIN {X 159.250,Y 0.025,Z 95.000,A 180.000,B 0.000,C 180.000} C_DIS
$VEL.CP=0.01
LIN {X 159.250,Y 0.025,Z 89.500,A 180.000,B 0.000,C 180.000} C_DIS
LIN {X 159.104,Y 0.025,Z 89.146,A 180.000,B 0.000,C 180.000} C_DIS
LIN {X 158.750,Y 0.025,Z 89.000,A 180.000,B 0.000,C 180.000} C_DIS
LIN {X 158.510,Y 0.025,Z 89.000,A 180.000,B 0.000,C 180.000} C_DIS
$VEL.CP=0.02
LIN {X -3.510,Y 0.025,Z 89.000,A 180.000,B 0.000,C 180.000} C_DIS
LIN {X -4.536,Y 0.358,Z 89.000,A 180.000,B 0.000,C 180.000} C_DIS
LIN {X -5.170,Y 1.231,Z 89.000,A 180.000,B 0.000,C 180.000} C_DIS
LIN {X -5.170,Y 2.309,Z 89.000,A 180.000,B 0.000,C 180.000} C_DIS
LIN {X -4.536,Y 3.182,Z 89.000,A 180.000,B 0.000,C 180.000} C_DIS
LIN {X -3.510,Y 3.515,Z 89.000,A 180.000,B 0.000,C 180.000} C_DIS
LIN {X -4.010,Y 153.590,Z 89.500,A 180.000,B 0.000,C 180.000} C_DIS
LIN {X -4.010,Y 153.590,Z 105.000,A 180.000,B 0.000,C 180.000} C_DIS
